icons/new/svg/eraser_detailed.svg

<svg xmlns="http://www.w3.org/2000/svg" viewBox="0 0 24 24" baseProfile="tiny"><path fill="none" d="M0 0h24v24H0z"/><path d="M198 32h-10v15.786c0 .056.028.111.078.151.05.04.118.063.188.063h9.631c.057 0 .103-.037.103-.083V32z" fill="url(#_Linear2)" transform="matrix(.8113 .80258 -1.00661 .99578 -101.208 -184.707)"/><path d="M197.901 38.003V32H198v16h-10v-9.997h9.901z" fill="url(#_Linear3)" transform="matrix(.8324 .82344 -1.04684 1.03558 -102.315 -193.944)"/><path d="M197.977 41.348l-3.65-3.041-1.01 31.25 3.652.11.855 1.949.153-30.268z" fill="url(#_Linear4)" transform="matrix(.82638 .78738 -.38249 .39283 -124.868 -163.333)"/><path d="M190.423 36.121l-.781 2.902a.175.175 0 0 0 .046.171l6.867 6.867c.029.029.07.041.109.032a.117.117 0 0 0 .084-.076l.932-2.64-7.257-7.256z" fill="url(#_Linear5)" transform="matrix(1.14736 0 0 1.13501 -214.557 -30.429)"/><path d="M26.235 7.004V4.725L22.63 8.372l-.13 2.363 3.735-3.731z" fill="#305cb0"/><path d="M28.918 2.153L22.633 8.37 14.392.217 20.677-6l8.24 8.153z" fill="#588cdd"/><path d="M197.977 41.348l-3.65-3.041-.834 10.609 3.652.11.855 1.948-.023-9.626z" fill="url(#_Linear6)" transform="matrix(.82638 .78738 -.38249 .39283 -121.568 -166.154)"/><defs><linearGradient id="_Linear2" x2="1" gradientUnits="userSpaceOnUse" gradientTransform="matrix(-3.86139 0 0 -3.1122 200.139 41.926)"><stop offset="0" stop-color="#505050"/><stop offset=".9" stop-color="#afafaf"/><stop offset="1" stop-color="#b8b8b8"/></linearGradient><linearGradient id="_Linear3" x2="1" gradientUnits="userSpaceOnUse" gradientTransform="matrix(22.5814 -1.29817 1.25452 23.367 186.289 40.519)"><stop offset="0" stop-color="#e2e2e2"/><stop offset=".5" stop-color="#c6c6c6"/><stop offset="1" stop-color="#bdbdbd"/></linearGradient><linearGradient id="_Linear4" x2="1" gradientUnits="userSpaceOnUse" gradientTransform="matrix(2.94 .11475 -.05514 6.11811 195.918 44.7)"><stop offset="0" stop-color="#d0d0d0" stop-opacity="0"/><stop offset=".3" stop-color="#cecece" stop-opacity=".204"/><stop offset=".5" stop-color="#c6c6c6"/><stop offset=".7" stop-color="#9c9c9c" stop-opacity=".267"/><stop offset="1" stop-color="#8d8d8d" stop-opacity="0"/></linearGradient><linearGradient id="_Linear5" x2="1" gradientUnits="userSpaceOnUse" gradientTransform="scale(-10.29704) rotate(-45 -13.926 21.381)"><stop offset="0" stop-color="#cacaca"/><stop offset=".2" stop-color="#c7c7c7"/><stop offset=".3" stop-color="#bfbfbf"/><stop offset=".4" stop-color="#b8b8b8"/><stop offset=".5" stop-color="#a9a9a9"/><stop offset=".6" stop-color="#9c9c9c"/><stop offset="1" stop-color="#979797"/></linearGradient><linearGradient id="_Linear6" x2="1" gradientUnits="userSpaceOnUse" gradientTransform="matrix(2.48223 .09689 -.04656 5.1655 195.501 43.509)"><stop offset="0" stop-color="#588cdd" stop-opacity="0"/><stop offset=".5" stop-color="#5488db" stop-opacity=".141"/><stop offset=".6" stop-color="#487cd6" stop-opacity=".533"/><stop offset=".7" stop-color="#3a6ed1"/><stop offset="1" stop-color="#4d45ac" stop-opacity="0"/></linearGradient></defs></svg>

<?xml version="1.0"?>
<!-- Converted with SVG Converter - Version 0.9.6 (Compiled Fri Dec  1 22:15:06 2017) - Copyright (C) 2011 Nokia -->
<svg xmlns="http://www.w3.org/2000/svg" viewBox="0 0 24 24" width="100%" xml:space="preserve" version="1.1" xmlns:xlink="http://www.w3.org/1999/xlink" height="100%" baseProfile="tiny">
 <g transform="matrix(1,0,0,1,-246,-94)">
  <g transform="matrix(1,0,0,1,33,67)">
   <g id="detailed">
    <rect style="fill:none;" width="24" id="eraser_detailed" y="27" x="213" height="24"/>
    <g>
     <g transform="matrix(0.811306,0.802575,-1.00661,0.995777,111.792,-157.707)">
      <path style="fill:url(#_Linear2);" d="M198,32L188,32C188,32 188,45.887 188,47.786C188,47.842 188.028,47.897 188.078,47.937C188.128,47.977 188.196,48 188.266,48C189.747,48 196.95,48 197.897,48C197.954,48 198,47.963 198,47.917C198,46.68 198,32 198,32Z"/>
     </g>
     <g transform="matrix(0.832393,0.823436,-1.04684,1.03558,110.685,-166.944)">
      <path style="fill:url(#_Linear3);" d="M197.901,38.003L197.901,32L198,32L198,48L188,48L188,38.003L197.901,38.003Z"/>
     </g>
     <g transform="matrix(0.826378,0.787384,-0.382485,0.392834,88.1322,-136.333)">
      <path style="fill:url(#_Linear4);" d="M197.977,41.348L194.327,38.307L193.317,69.557L196.969,69.667L197.824,71.616L197.977,41.348Z"/>
     </g>
     <g transform="matrix(1.14736,-2.29376e-16,2.31872e-16,1.13501,-1.55691,-3.42897)">
      <path style="fill:url(#_Linear5);" d="M190.423,36.121C190.423,36.121 189.782,38.503 189.642,39.023C189.625,39.084 189.643,39.149 189.688,39.194C190.369,39.875 195.653,45.159 196.555,46.061C196.584,46.09 196.625,46.102 196.664,46.093C196.703,46.084 196.735,46.055 196.748,46.017C196.965,45.401 197.68,43.377 197.68,43.377L190.423,36.121Z"/>
     </g>
     <g transform="matrix(0.811306,0.802575,-0.389865,0.385669,94.7353,-140.834)">
      <path style="fill:rgb(48,92,176);" d="M197.977,41.348L196.557,38.394L196.608,47.745L198,50.974L197.977,41.348Z"/>
     </g>
     <g transform="matrix(0.849162,0.840024,-0.526183,0.520521,92.7557,-155.94)">
      <path style="fill:rgb(88,140,221);" d="M198,36.056L198,48L188.295,48L188.295,36.056L198,36.056Z"/>
     </g>
     <g id="blur" transform="matrix(0.826378,0.787384,-0.382485,0.392834,91.4322,-139.154)">
      <path style="fill:url(#_Linear6);" d="M197.977,41.348L194.327,38.307L193.493,48.916L197.145,49.026L198,50.974L197.977,41.348Z"/>
     </g>
    </g>
   </g>
  </g>
 </g>
 <defs>
  <linearGradient x1="0" id="_Linear2" x2="1" gradientUnits="userSpaceOnUse" y2="0" y1="0" gradientTransform="matrix(-3.86139,1.11022e-15,1.77636e-15,-3.1122,200.139,41.9264)">
   <stop style="stop-color:rgb(80,80,80);stop-opacity:1" offset="0.0"/>
   <stop style="stop-color:rgb(175,175,175);stop-opacity:1" offset="0.9"/>
   <stop style="stop-color:rgb(184,184,184);stop-opacity:1" offset="1.0"/>
  </linearGradient>
  <linearGradient x1="0" id="_Linear3" x2="1" gradientUnits="userSpaceOnUse" y2="0" y1="0" gradientTransform="matrix(22.5814,-1.29817,1.25452,23.367,186.289,40.5189)">
   <stop style="stop-color:rgb(226,226,226);stop-opacity:1" offset="0.0"/>
   <stop style="stop-color:rgb(198,198,198);stop-opacity:1" offset="0.5"/>
   <stop style="stop-color:rgb(189,189,189);stop-opacity:1" offset="1.0"/>
  </linearGradient>
  <linearGradient x1="0" id="_Linear4" x2="1" gradientUnits="userSpaceOnUse" y2="0" y1="0" gradientTransform="matrix(2.94,0.114753,-0.0551435,6.11811,195.918,44.7004)">
   <stop style="stop-color:rgb(208,208,208);stop-opacity:0" offset="0.0"/>
   <stop style="stop-color:rgb(206,206,206);stop-opacity:0.203922" offset="0.3"/>
   <stop style="stop-color:rgb(198,198,198);stop-opacity:1" offset="0.5"/>
   <stop style="stop-color:rgb(156,156,156);stop-opacity:0.266667" offset="0.7"/>
   <stop style="stop-color:rgb(141,141,141);stop-opacity:0" offset="1.0"/>
  </linearGradient>
  <linearGradient x1="0" id="_Linear5" x2="1" gradientUnits="userSpaceOnUse" y2="0" y1="0" gradientTransform="matrix(-7.28111,7.28111,-7.28111,-7.28111,197.68,36.9159)">
   <stop style="stop-color:rgb(202,202,202);stop-opacity:1" offset="0.0"/>
   <stop style="stop-color:rgb(199,199,199);stop-opacity:1" offset="0.2"/>
   <stop style="stop-color:rgb(191,191,191);stop-opacity:1" offset="0.3"/>
   <stop style="stop-color:rgb(184,184,184);stop-opacity:1" offset="0.4"/>
   <stop style="stop-color:rgb(169,169,169);stop-opacity:1" offset="0.5"/>
   <stop style="stop-color:rgb(156,156,156);stop-opacity:1" offset="0.6"/>
   <stop style="stop-color:rgb(151,151,151);stop-opacity:1" offset="1.0"/>
  </linearGradient>
  <linearGradient x1="0" id="_Linear6" x2="1" gradientUnits="userSpaceOnUse" y2="0" y1="0" gradientTransform="matrix(2.48223,0.0968858,-0.0465575,5.1655,195.501,43.5087)">
   <stop style="stop-color:rgb(88,140,221);stop-opacity:0" offset="0.0"/>
   <stop style="stop-color:rgb(84,136,219);stop-opacity:0.141176" offset="0.5"/>
   <stop style="stop-color:rgb(72,124,214);stop-opacity:0.533333" offset="0.6"/>
   <stop style="stop-color:rgb(58,110,209);stop-opacity:1" offset="0.7"/>
   <stop style="stop-color:rgb(77,69,172);stop-opacity:0" offset="1.0"/>
  </linearGradient>
 </defs>
</svg>
